X: 340
T:Dobbin's Flowery Vale
M:4/4
L:1/8
Q:120
S:Frankie Kennedy
R:air
N:Frankie Kennedy recorded this using a Bb flute.  This transcription is
N:transposed and written for D flute
D:Altan - Harvest Storm
H:Frankie Kennedy learned this from a tape of a BBC recording of Robert
H:Cinnamond of Glenavy, Co. Antrim
Z:Tom Madden
K:G
|:B2GB EBGB|A2FA DAFA|B2GB EBGA|(3B^cd ef gfed
|B2GB EBGB|A2FA DAFA|BAGF EFGA|(3B^cd ed (3Bcd ef
|g2gf gfed|BdAc Bdef|g2gf gfed|BdAc BEef|"Variation A" gbaf gfed
|B2AB GAFG|EDEF GzGA|AGdB gfed:|
|!"variation at A" g2gf gfed|B2AB GBFB|
<end>
<start>
